X:1
T:Christmas bells at sea - Sullivan
T:#
%%score 1 { ( 2 3 ) | 4 }
L:1/8
Q:1/4=108
M:4/4
K:Db
V:1 treble nm="Midi_74"
V:2 treble nm="Midi_1"
V:3 treble 
V:4 bass 
V:1
"^Charles Lamb Kenney""^Allegretto moderato""^Christmas Bells at Sea""^Christmas bells at sea" z8 | %1
w: |
 z8 | z8 | z8 | z4 F3 F | G3 G =G3"^Sir Arthur Sullivan\n(1842-1900)" G |[M:4/4] B2 A2 A2 B2 | %7
w: |||Still the|night and calm the|o- cean, Dazz- ling|
 d3 d (dc) (Bc) | d4 F3 F | G3 G =G2 G2 | B2 A2 A2 B2 | c3 c (c{/e}d) (cB) | A2 z2!p! E3 E | %13
w: bright each win\- * try *|star; Scarce- ly|felt the ves- sel's|mo- tion, When we|heard from out * a\- *|far Soft- ly|
 E2 E2 E3 E | E2 E2 E3 E |"^cresc." A2 A2 d2 c2 | (B2 F2 =G2 E2) |"^dim." A8- | %18
w: peal- ing, Gent- ly|steal- ing, Sil- v'ry|bells in vol- leys|ring\- * * *|ing,|
 A2 z2!p! (AB) (cd) | d3 G (GA) (Bc) | c4 F2 B2 | B3 E (EF) (GA) | G2 F2 A3 G | %23
w: * Ring\- * ing *|out in ho\- * ly *|glee; E'en to|us glad ti\- * dings *|bring- ing, E'en to|
 F2"^cresc." A2 A3 G | F4 B4 |!f! (AB) cd d2 c2 | d6 z2 | z8 | z8 | z4 F3 F | G3 G =G3 G | %31
w: us glad tid- ings|bring- ing|Christ\- * mas * bells at|sea.|||Wrapt in|awe a- round them|
 B2 A2 A2 B2 | d3 d (dc) (Bc) | d4 F3 F | G3 G =G2 G2 | B2 A2 A2 B2 | c3 c (c{/e}d) (cB) | %37
w: ga- zing, Mute the|crew in won\- * der *|stand, Whence could|come those sounds a-|ma- zing, Far from|sight or sound * of *|
 A2 z2!p! E3 E | E2 E2 E3 E | E2 E2 E3 E |"^cresc." A2 A2 d2 c2 | (B2 F2 =G2 E2) |"^dim." A8- | %43
w: land? Ri- sing,|fall- ing, Home re-|call- ing, Thoughts of|home and hea- ven|bring- * * *|ing,|
 A2 z2!p! (AB) (cd) | d3 G (GA) (Bc) | c4 F2 B2 | B3 E (EF) (GA) | G2 F2 A3 G | %48
w: * Sure * a *|so- lemn mys\- * te\- *|ry 'Twas to|hear their sil\- * v'ry *|ring- ing, 'Twas to|
"^cresc." F2 A2 A3 G | F4 B4 |!f! (AB) (cd) d2 c2 | d6 z2 | z8 | z8 | z4 F3 F | G3 G =G3 G | %56
w: hear their sil- v'ry|ring- ing|Christ\- * mas * Bells at|sea.|||Vain Thy|ways O Heaven, to|
 B2 A2 A2 B2 | d3 d (dc) (Bc) | d4!p! F3 F | G2 G2 =G3 G | B2 A2 A2 B2 | c3 c (cdc)B | A4!p! E3 E | %63
w: mea- sure; Who Thy|se- crets can * di\- *|vine? In our|hearts e- nough to|trea- sure To- kens|of Thy love * * be-|nign Where no|
 E2 E2 E3 E | E2 E2 E3 E |"^cresc." A2 A2 d2 c2 | (B2 F2 =G2 E2) |"^dim." A8- | %68
w: stee- ple calls its|peo- ple Ti- dings|of a Sa- viour|bring- * * *|ing,|
 A2 z2!p! (AB) (cd) | d3 G (GA) (Bc) | c4 F2 B2 | B2 E2 (EF) (GA) | G2 F2 A3 G | %73
w: * An- * gel *|hands are set * by *|Thee From a|cloud- built bel\- * fry *|ring- ing, From a|
"^cresc." F2 A2 A3 G | F4 B4 |!f! (AB) (cd) [df]2[Q:1/4=60] !fermata![ce]2 |[Q:1/4=108] d6 z2 | %77
w: cloud- built bel- fry|ring- ing|Christ- * mas * Bells at|sea.|
 z8 | z8 | z8 |] %80
w: |||
V:2
!p! z!ped! [Aa]2 [Aa]2 [Aa]2 [Aa]!ped-up! | z [Aa]2 [Aa]2 [Aa]2 [Aa] | %2
 z [dd']2 [dd']2 [dd']2 [dd'] |!f! [dd']2 [Be]2 [GA]2 [Gc]2 | d2 z2 z!p! [A,DF] z [A,DF] | %5
 z [A,DG] z [B,DG] z [B,D_F=G] z [B,DFG] |[M:4/4] z [A,E!courtesy!_G] z [A,EG] z [A,DF] z [B,DE] | %7
 z [A,DF] z [A,DF] z [A,EG] z [A,EG] | z [A,DF] z [A,DF] z [A,DF] z [A,DF] | %9
 z [B,DG] z [B,DG] z [B,C=E=G] z [B,CEG] | z [B,C=E=G] z [A,CF] z [B,FA] z [B,FA] | %11
 z [CEA] z [CEA] z [DE=G] z [DEG] |!p! z [Ee]2 [Ee]2 [Ee]2 [Ee] | z [Ee]2 [Ee]2 [Ee]2 [Ee] | %14
 z [Ee]2 [Ee]2 [Ee]2 [Ee] | z [Aa]2 [Aa]2 [Aa]2 [Aa] | z [Ee]2 [Ee]2 [Ee]2 [Ee] | %17
 z [Ee]2 [Ee]2 [Ee]2 [Ee] | z [CEA] z [CEA]!p! z [A,DA] z [A,DA] | %19
 z [B,DG] z [B,DG] z [A,CG] z [A,CG] | z [CEF] z [CEF] z [A,=DF] z [A,DF] | %21
 z [=G,!courtesy!_DE] z [G,DE] z [_G,CE] z [G,CE] | z [G,CE] z [F,D] z [Aa]2 [Aa] | %23
 z!ped-up!!ped! [Aa]2 [Aa]2 [Aa]2 [Aa] | z [Aa]2 [Aa]2 [dd']2 [dd'] | %25
!f! [Adfa]2 z2 [F,A,DF]2 [G,A,CE]2 | [F,A,D]2!ped-up!!ped!!f! z [Aa]2 [Aa]2 [Aa] | %27
 z [dd']2 [dd']2 [dd']2 [dd'] | [dd']2 [Be]2 [GA]2 [Gc]2 | d2 z2!p!!p! z [A,DF] z [A,DF] | %30
 z [B,DG] z [B,DG] z [A,D_F=G] z [B,DFG] | z [A,E!courtesy!_G] z [A,EG] z [A,DF] z [B,DE] | %32
 z [A,DF] z [A,DF] z [A,EG] z [A,EG] | z [A,DF] z [A,DF] z [A,DF] z [A,DF] | %34
 z [B,DG] z [B,DG] z [B,C=E=G] z [B,CEG] | z [B,C=E=G] z [A,CF] z [B,FA] z [B,FA] | %36
 z [CEA] z [CEA] z [DE=G] z [CEG] |!p! z [Ee]2 [Ee]2 [Ee]2 [Ee] | z [Ee]2 [Ee]2 [Ee]2 [Ee] | %39
 z [Ee]2 [Ee]2 [Ee]2 [Ee] | z [Aa]2 [Aa]2 [Aa]2 [Aa] | z [Ee]2 [Ee]2 [Ee]2 [Ee] | %42
 z"^dim." [Ee]2 [Ee]2 [Ee]2 [Ee] | z [CEA] z [CEA] z [A,DA] z [A,DA] | %44
 z [B,DG] z [B,DG] z [A,CG] z [A,CG] | z [CEF] z [CEF] z [A,=DF] z [A,DF] | %46
 z [=G,!courtesy!_DE] z [G,DE] z [_G,CE] z [G,CE] | z [G,CE] z [F,D] z [Aa]2 [Aa] | %48
 z!ped!"^cresc." [Aa]2 [Aa]2 [Aa]2!ped-up! [Aa] | z [Aa]2 [Aa]2 [dd']2 [dd'] | %50
!f! [Adfa]2 z2 [F,A,DF]2 [G,A,CE]2 | [F,A,D]2!ped!!f! z [Aa]2 [Aa]2 [Aa] | %52
 z [dd']2 [dd']2 [dd']2 [dd'] | [dd']2 [Be]2 [GA]2 [Gc]2 | d2 z2!p! z [A,DF] z [A,DF] | %55
 z [B,DG] z [B,DG] z [B,D_F=G] z [B,DFG] | %56
 z [A,E!courtesy!_G] z [A,EG] z [A,D!courtesy!=F] z [B,DE] | z [A,DF] z [A,DF] z [A,EG] z [A,EG] | %58
 z [A,DF] z [A,DF]!p! z [A,DF] z [A,DF] | z [B,DG] z [B,DG] z [B,C=E=G] z [B,CEG] | %60
 z [B,C=E=G] z [A,CF] z [B,FA] z [B,FA] | z [C!courtesy!_EA] z [CEA] z [DE=G] z [DEG] | %62
!p! z [Ee]2 [Ee]2 [Ee]2 [Ee] | z [Ee]2 [Ee]2 [Ee]2 [Ee] | z [Ee]2 [Ee]2 [Ee]2 [Ee] | %65
 z [Aa]2 [Aa]2 [Aa]2 [Aa] | z [Ee]2 [Ee]2 [Ee]2 [Ee] | z"^dim." [Ee]2 [Ee]2 [Ee]2 [Ee] | %68
 z [CEA] z [CEA]!p! z [A,DA] z [A,DA] | z [B,DG] z [B,DG] z [A,CG] z [A,CG] | %70
 z [CEF] z [CEF] z [A,=DF] z [A,DF] | z [=G,!courtesy!_DE] z [G,DE] z [_G,CE] z [G,CE] | %72
 z [G,CE] z [F,D] z [Aa]2 [Aa] | z!ped! [Aa]2 [Aa]2 [Aa]2!ped-up! [Aa] | %74
 z [Aa]2 [Aa]2 [dd']2 [dd'] |!f! [Adfa]2 z2 [F,A,DF]2 !fermata![G,A,CE]2 | %76
 [F,A,D]2!ped!!ff! z [Aa]2 [Aa]2 [Aa]- | [Aa] [Aa]2 [Aa]2 [Aa]2 [Aa] | [Aa]2 z2 [F,A,DF]2 z2 | %79
 [F,A,D]2 z2!ped-up! z4 |] %80
V:3
 x4 x4 | x4 x4 | x4 x4 | x2 ED CD E2 | [DF]2 z2 z x z x | x4 x4 |[M:4/4] x4 x4 | x8 | x8 | x8 | %10
 x8 | x8 | x8 | x8 | x8 | x8 | x8 | x8 | x8 | x8 | x8 | x8 | x8 | x8 | x8 | x8 | x8 | x8 | %28
 x2 ED CD E2 | [DF]2 z2 z x z x | x4 x4 | x8 | x8 | x8 | x8 | x8 | x8 | x8 | x8 | x8 | x8 | x8 | %42
 x8 | x8 | x8 | x8 | x8 | x8 | x8 | x8 | x8 | z8 | x4 x4 | x2 ED CD E2 | [DF]2 z2 z x z x | x8 | %56
 x8 | x8 | x8 | x8 | x8 | x8 | x8 | x8 | x8 | x8 | x8 | x8 | x8 | x8 | x8 | x8 | x8 | x8 | x8 | %75
 x8 | x8 | x8 | x8 | x8 |] %80
V:4
 [D,,D,]2!<(! ([A,F]2!>(! [B,G]2!<)! [CE]2)!>)! | [D,,D,]2!<(! ([A,F]2!>(! [B,G]2!<)! [CE]2)!>)! | %2
 [D,,D,]2[K:treble]!<(! ([DB]2!>(! [E_c]2!<)! [FA]2)!>)! | %3
 [GB]2[K:bass] [G,,G,]2 [A,,A,]2 [A,,,A,,]2 | [D,,D,]2 z2!p! D,, z D, z | D,, z D, z D,, z D, z | %6
[M:4/4] C,, z C, z (D,2 =G,,2 | A,,2) A,, z A,,, z A,, z | D,, z D, z D,, z D, z | %9
 D,, z D, z C,, z C, z | F,, z F, z =D,, z =D, z | E,, z E, z E,, z E, z | %12
 [A,,,A,,] z!<(! ([E,C]2!>(! [F,D]2!<)! [=G,B,]2)!>)! | %13
 [A,,,A,,] z!<(! ([E,C]2!>(! [F,D]2!<)! [=G,B,]2)!>)! | %14
 [A,,,A,,] z!<(! ([E,C]2!>(! [F,D]2!<)! [=G,B,]2)!>)! | %15
"^cresc." [A,,,A,,] z!<(! ([E,C]2!>(! [A,F]2!<)! [A,E]2)!>)! | [A,D]4 [A,B,D]4 |"^dim." [A,C]8 | %18
 A, z !courtesy!_G, z F, z F,, z | E,, z E, z A,, z A,,, z | =A,,, z =A,, z B,, z B,,, z | %21
 E,, z E, z !courtesy!_A,,, z !courtesy!_A,, z | D,, z D, z (!>![B,G]2 [CE]2) | %23
"^cresc." [D,,D,]2!<(! ([A,F]2!>(! [B,G]2!<)! [CE]2)!>)! | [D,,D,]2 [A,DF]2 [=G,,,=G,,]2 [B,DE]2 | %25
 [A,,,A,,]2 z2 [A,,,A,,]2 [A,,,A,,]2 | [D,,D,]2!<(! ([A,F]2!>(! [B,G]2!<)! [CE]2)!>)! | %27
 [D,,D,]2[K:treble]!<(! ([DB]2!>(! [E_c]2!<)! [FA]2)!>)! | %28
 [GB]2[K:bass] [G,,G,]2 [A,,A,]2 [A,,,A,,]2 | [D,,D,]2 z2 D,, z D, z | D,, z D, z D,, z D, z | %31
 C,, z C, z (D,2 =G,,2) | A,,2 A,, z A,,, z A,, z | D,, z D, z D,, z D,"^i" z | %34
 D,, z D, z C,, z C, z | F,, z F, z =D,, z =D, z | E,, z E, z E,, z E, z | %37
 [A,,,A,,] z!<(! ([E,C]2!>(! [F,D]2!<)! [=G,B,]2)!>)! | %38
 [A,,,A,,] z!<(! ([E,C]2!>(! [F,D]2!<)! [=G,B,]2)!>)! | %39
 [A,,,A,,] z!<(! ([E,C]2!>(! [F,D]2!<)! [=G,B,]2)!>)! | %40
"^cresc." [A,,,A,,] z!<(! ([E,C]2!>(! [A,F]2!<)! [A,E]2)!>)! | [A,D]4 [A,B,D]4 | [A,C]8 | %43
 A, z G, z!p! F, z F,, z | E,, z E, z A,, z A,,, z | =A,,, z =A,, z B,, z"^!" B,,, z | %46
 E,, z E, z !courtesy!_A,,, z !courtesy!_A,, z | D,, z D, z (!>![B,G]2 [CE]2) | %48
 [D,,D,]2!<(! ([A,G]2!>(! [B,G]2!<)! [CE]2)!>)! | [D,,D,]2 [A,DF]2 [=G,,,=G,,]2 [B,DE]2 | %50
 [A,,,A,,]2 z2 [A,,,A,,]2 [A,,,A,,]2 | [D,,D,]2!<(! ([A,F]2!>(! [B,G]2!<)! [CE]2)!>)! | %52
 [D,,D,]2[K:treble]!<(! ([DB]2!>(! [E_c]2!<)! [FA]2)!>)! | %53
 [GB]2[K:bass] [G,,G,]2 [A,,A,]2 [A,,,A,,]2 | [D,,D,]2 z2!p! D,, z D, z | D,, z D, z D,, z D, z | %56
 C,, z C, z (D,2 =G,,2 | A,,2 A,, z A,,, z A,, z | D,, z D, z D,, z D, z | D,, z D, z C,, z C, z | %60
 F,, z F, z =D,, z =D, z | !courtesy!_E,, z E, z E,, z E, z | %62
 [A,,,A,,] z!<(! [E,C]2!>(! [F,D]2!<)! [=G,B,]2)!>)! | %63
 [A,,,A,,] z!<(! ([E,C]2!>(! [F,D]2!<)! [=G,B,]2)!>)! | %64
 [A,,,A,,] z!<(! ([E,C]2!>(! [F,D]2!<)! [=G,B,]2)!>)! | %65
"^cresc." [A,,,A,,] z!<(! ([E,C]2!>(! [A,F]2!<)! [A,E]2)!>)! | [A,D]4 [A,B,D]4 | [A,C]8 | %68
 A, z G, z F, z F,, z | E,, z E, z A,, z A,,, z | =A,,, z =A,, z B,, z B,,, z | %71
 E,, z E, z !courtesy!_A,,, z !courtesy!_A,, z | D,, z D, z (!>![B,G]2 [CE]2) | %73
 [D,,D,]2!<(! ([A,F]2!>(! [B,G]2!<)! [CE]2)!>)! | [D,,D,]2 [A,DF]2 [=G,,,=G,,]2 [B,DE]2 | %75
 [A,,,A,,]2 z2 [A,,,A,,]2 !fermata![A,,,A,,]2 | [D,,D,]2!<(! ([A,F]2!>(! [B,G]2!<)! [CE]2)!>)! | %77
!>(! ([B,G]2 [CE]2 [B,G]2 [CE]2)!>)! | [DF]2 z2 [D,,D,]2 z2 | [D,,D,]2 z2 z4 |] %80

